assets/illustrations/multisize/32/audiowatermark.svg

<svg id="0870e757-4c03-4dca-8320-1fa362e71da4" data-name="ICONS" xmlns="http://www.w3.org/2000/svg" viewBox="0 0 32 32"><title>FileTypeIcons_Master_All_NEW</title><path d="M12,6V23.70459A6.28764,6.28764,0,0,0,7.5,22C4.4624,22,2,23.791,2,26s2.4624,4,5.5,4S13,28.209,13,26V7L29,3.4V19.70459A6.28764,6.28764,0,0,0,24.5,18c-3.0376,0-5.5,1.791-5.5,4s2.4624,4,5.5,4S30,24.209,30,22V2ZM7.5,29C5.06055,29,3,27.626,3,26s2.06055-3,4.5-3S12,24.374,12,26,9.93945,29,7.5,29Zm17-4c-2.43945,0-4.5-1.374-4.5-3s2.06055-3,4.5-3S29,20.374,29,22,26.93945,25,24.5,25Z" fill="#949494"/></svg>

<?xml version="1.0" encoding="utf-8"?>
<!-- Generator: Adobe Illustrator 21.1.0, SVG Export Plug-In . SVG Version: 6.00 Build 0)  -->
<svg version="1.1" xmlns="http://www.w3.org/2000/svg" xmlns:xlink="http://www.w3.org/1999/xlink" x="0px" y="0px"
	 viewBox="0 0 32 32" enable-background="new 0 0 32 32" xml:space="preserve">
<g id="TEMPLATE" display="none">
	<g display="inline">
		<path fill="#D0D0D0" d="M32,0v32H0V0H32 M33-1h-1H0h-1v1v32v1h1h32h1v-1V0V-1L33-1z"/>
	</g>
	<g display="inline" opacity="0.1">
		<path fill="#FF3A6D" d="M30,2v28H2V2H30 M32,0H0v32h32V0L32,0z"/>
	</g>
</g>
<g id="ICONS">
	<path fill="#949494" d="M12,6v17.7046C11.0049,22.6748,9.3623,22,7.5,22C4.4624,22,2,23.791,2,26s2.4624,4,5.5,4s5.5-1.791,5.5-4V7
		l16-3.6v16.3046C28.0049,18.6748,26.3623,18,24.5,18c-3.0376,0-5.5,1.791-5.5,4s2.4624,4,5.5,4s5.5-1.791,5.5-4V2L12,6z M7.5,29
		C5.0605,29,3,27.626,3,26s2.0605-3,4.5-3s4.5,1.374,4.5,3S9.9395,29,7.5,29z M24.5,25c-2.4395,0-4.5-1.374-4.5-3s2.0605-3,4.5-3
		s4.5,1.374,4.5,3S26.9395,25,24.5,25z"/>
</g>
</svg>
